src/app/components/golos-ui/Icon/assets/ic_like.svg

<?xml version="1.0" encoding="UTF-8"?>
<svg width="28px" height="28px" viewBox="0 0 28 28" version="1.1" xmlns="http://www.w3.org/2000/svg" xmlns:xlink="http://www.w3.org/1999/xlink">
    <!-- Generator: Sketch 51.2 (57519) - http://www.bohemiancoding.com/sketch -->
    <title>ic_like</title>
    <desc>Created with Sketch.</desc>
    <defs>
        <path d="M25.8125,24.71875 C25.8125,25.3218437 25.3218437,25.8125 24.71875,25.8125 L23.078125,25.8125 C22.4750313,25.8125 21.984375,25.3218437 21.984375,24.71875 L21.984375,13.5625 C21.984375,12.9594062 22.4750313,12.46875 23.078125,12.46875 L24.71875,12.46875 C25.3218437,12.46875 25.8125,12.9594062 25.8125,13.5625 L25.8125,24.71875 Z M24.71875,10.28125 L23.078125,10.28125 C22.7219453,10.28125 22.3788906,10.3382891 22.0574922,10.4437266 L16.6576484,2.03535938 L15.9528359,1.04529687 L15.8930625,0.984375 C15.2708828,0.3495625 14.4387031,0 13.5498672,0 C11.7405859,0 10.2686172,1.47196875 10.2686172,3.28125 C10.2686172,3.64585156 10.3283359,4.00454687 10.4460234,4.34738281 L10.4683906,4.41257031 L10.4988516,4.47447656 C10.6706797,4.82420313 10.8543203,5.18984375 11.0487344,5.57686719 C11.5388984,6.55276563 12.3481641,8.16391406 12.4694063,8.64822656 C12.3904922,9.22140625 11.6241563,9.5703125 11.0782656,9.5703125 L3.8828125,9.5703125 C2.16398438,9.5703125 0.765625,10.9686719 0.765625,12.6875 C0.765625,13.2533516 0.920390625,13.8000625 1.20214062,14.2745859 C0.460960938,14.8514297 0,15.7485781 0,16.734375 C0,17.5085313 0.28284375,18.2543047 0.796414063,18.8342656 C0.931546875,18.9868984 1.07882031,19.1237266 1.23599219,19.2437109 C0.970703125,19.7060938 0.823921875,20.2348672 0.823921875,20.78125 C0.823921875,21.9667109 1.49411719,22.9997578 2.47805469,23.5267812 C2.28976562,23.92075 2.1875,24.3530547 2.1875,24.7968984 C2.1875,26.6528828 3.50339062,28 5.31639063,28 L16.0234375,28 C16.6275156,28 17.1171875,27.5103281 17.1171875,26.90625 C17.1171875,26.3021719 16.6275156,25.8125 16.0234375,25.8125 L5.31639063,25.8125 C4.46676562,25.8125 4.375,25.1022734 4.375,24.7968984 C4.375,24.3456172 4.75617187,24.1002344 4.87292969,24.0358125 C5.48652344,23.6973516 5.578125,23.2110703 5.578125,22.9513594 C5.578125,22.2557891 4.97760156,21.7109375 4.2109375,21.7109375 L3.96424219,21.7109375 C3.43885937,21.7109375 3.01142187,21.2938906 3.01142187,20.78125 C3.01142187,20.4549844 3.19320313,20.1475859 3.48578125,19.9790938 C3.50432031,19.9684297 3.52154688,19.9592422 3.5371875,19.9508203 C4.02057031,19.6897422 4.265625,19.3145859 4.265625,18.8357422 C4.265625,18.4230156 3.99010938,17.7095625 2.9575,17.6538359 C2.540125,17.63125 2.1875,17.2102109 2.1875,16.734375 C2.1875,16.3148125 2.48401563,15.9354453 2.89253125,15.8324141 C3.55025781,15.6664922 3.9921875,15.1498594 3.9921875,14.546875 C3.9921875,14.2483359 3.88210156,13.8161406 3.3578125,13.4523594 C3.10444531,13.2765391 2.953125,12.9906328 2.953125,12.6875 C2.953125,12.1748594 3.37017188,11.7578125 3.8828125,11.7578125 L11.0782656,11.7578125 C12.7446484,11.7578125 14.5883828,10.5742109 14.6613359,8.66211719 L14.6621563,8.62039062 C14.6621563,7.96277344 14.1821641,6.94164844 13.0034844,4.5950625 C12.8248203,4.239375 12.6553984,3.9020625 12.4978438,3.58230469 C12.4701172,3.485125 12.4561172,3.38411719 12.4561172,3.28125 C12.4561172,2.67815625 12.9467734,2.1875 13.5498672,2.1875 C13.8223203,2.1875 14.0788594,2.28604687 14.2796719,2.46646094 L14.8315234,3.23990625 L20.3201797,11.7865234 C19.9891563,12.2987266 19.796875,12.9086016 19.796875,13.5625 L19.796875,24.71875 C19.796875,26.5280313 21.2688437,28 23.078125,28 L24.71875,28 C26.5280313,28 28,26.5280313 28,24.71875 L28,13.5625 C28,11.7532188 26.5280313,10.28125 24.71875,10.28125 Z" id="path-1"></path>
    </defs>
    <g id="FAQ" stroke="none" stroke-width="1" fill="none" fill-rule="evenodd">
        <g transform="translate(-554.000000, -1469.000000)" id="Group-7">
            <g transform="translate(0.000000, 1202.000000)">
                <g id="Group-22" transform="translate(533.000000, 241.000000)">
                    <g id="ic_like" transform="translate(35.000000, 40.000000) scale(1, -1) translate(-35.000000, -40.000000) translate(21.000000, 26.000000)">
                        <mask id="mask-2" fill="white">
                            <use xlink:href="#path-1"></use>
                        </mask>
                        <use id="Fill-1" fill="#FFC80A" transform="translate(14.000000, 14.000000) scale(1, -1) translate(-14.000000, -14.000000) " xlink:href="#path-1"></use>
                    </g>
                </g>
            </g>
        </g>
    </g>
</svg>

<svg width="28" height="28" viewBox="0 0 28 28" xmlns="http://www.w3.org/2000/svg" xmlns:xlink="http://www.w3.org/1999/xlink"><defs><path d="M25.813 24.719c0 .603-.491 1.093-1.094 1.093h-1.64c-.604 0-1.095-.49-1.095-1.093V13.562c0-.603.491-1.093 1.094-1.093h1.64c.604 0 1.095.49 1.095 1.094v11.156zM24.718 10.28h-1.64c-.357 0-.7.057-1.022.163l-5.4-8.409-.704-.99-.06-.06A3.256 3.256 0 0 0 13.55 0a3.285 3.285 0 0 0-3.104 4.347l.022.066.03.061c.173.35.356.716.55 1.103.49.976 1.3 2.587 1.421 3.071-.079.573-.845.922-1.39.922H3.882a3.12 3.12 0 0 0-3.117 3.117c0 .566.154 1.113.436 1.588A3.113 3.113 0 0 0 0 16.735a3.165 3.165 0 0 0 1.236 2.509 3.09 3.09 0 0 0-.412 1.537c0 1.186.67 2.219 1.654 2.746-.188.394-.29.826-.29 1.27C2.188 26.653 3.502 28 5.316 28h10.707a1.094 1.094 0 1 0 0-2.188H5.316c-.85 0-.941-.71-.941-1.015 0-.451.381-.697.498-.761.614-.339.705-.825.705-1.085 0-.695-.6-1.24-1.367-1.24h-.247a.943.943 0 0 1-.953-.93c0-.326.182-.633.475-.802l.051-.028c.484-.261.729-.636.729-1.115 0-.413-.276-1.126-1.308-1.182-.418-.023-.77-.444-.77-.92 0-.42.296-.799.705-.902.657-.166 1.1-.682 1.1-1.285 0-.299-.11-.73-.635-1.095a.934.934 0 0 1-.405-.764.93.93 0 0 1 .93-.93h7.195c1.667 0 3.51-1.184 3.583-3.096l.001-.042c0-.657-.48-1.678-1.659-4.025-.178-.356-.348-.693-.505-1.013a1.095 1.095 0 0 1 1.782-1.116l.552.774 5.488 8.547a3.262 3.262 0 0 0-.523 1.775V24.72A3.285 3.285 0 0 0 23.078 28h1.64A3.285 3.285 0 0 0 28 24.719V13.562a3.285 3.285 0 0 0-3.281-3.28z" id="a"/></defs><use fill="#FFC80A" xlink:href="#a" fill-rule="evenodd"/></svg>
